X:3203
T:The Lanes of Au
P:West Kilbride
C:A. M. Volti
R:Reel (3x32)
B:RSCDS 32-3
Z:Anselm Lingnau <anselm@strathspey.org>
M:C
L:1/8
K:A
e2|"A"a>A AA AcBA|"E7"GABc defg|"A"a2 A2 AcBA|"E7"dBGB "A"A2 e2|
   "A"a>A AA AcBA|"E"GABc defg|"F#m"a2 A2 "A"AcBA|"E7"dBGB "A"A2||
e2|"A"a2 ae "D"f2 fe|"A"a2 ae "D"f2 "E"fe|"A"agfe "Bm"dcBA|"E7"GABc defg|
   "A"a2 ae "D"f2 fe|"A"a2 ae "D"f2 "E"fe|"F#m"agfe "Bm"dcBA|"E7"GEFG "A"A2|]
